src/images/pages/header/wallets/ic-wallets-currency-xrp.svg

<svg width="40" height="24" viewBox="0 0 40 24" fill="none" xmlns="http://www.w3.org/2000/svg">
<path d="M0 4C0 1.79086 1.79086 0 4 0H36C38.2091 0 40 1.79086 40 4V20C40 22.2091 38.2091 24 36 24H4C1.79086 24 0 22.2091 0 20V4Z" fill="white"/>
<path d="M0 4C0 1.79086 1.79086 0 4 0H36C38.2091 0 40 1.79086 40 4V20C40 22.2091 38.2091 24 36 24H4C1.79086 24 0 22.2091 0 20V4Z" fill="url(#paint0_radial_7716_619)"/>
<path d="M17.975 12C17.975 14.4853 15.9603 16.5 13.475 16.5C10.9897 16.5 8.97501 14.4853 8.97501 12C8.97501 9.51472 10.9897 7.5 13.475 7.5C15.9603 7.5 17.975 9.51472 17.975 12Z" fill="#171C21"/>
<path d="M15.7166 10.1381H15.0657L14.037 11.1562C13.7266 11.4634 13.2233 11.4634 12.9128 11.1562L11.8842 10.1381H11.2333L12.5874 11.4782C13.0776 11.9633 13.8723 11.9633 14.3625 11.4782L15.7166 10.1381Z" fill="white"/>
<path d="M11.225 13.8647H11.8759L12.9129 12.8383C13.2233 12.5311 13.7267 12.5311 14.0371 12.8383L15.0742 13.8647H15.725L14.3625 12.5163C13.8724 12.0312 13.0776 12.0312 12.5875 12.5163L11.225 13.8647Z" fill="white"/>
<path d="M22.5495 10.3521H23.1128L21.9404 11.5373C21.516 11.9665 20.8285 11.9665 20.404 11.5373L19.2321 10.3521H19.7954L20.6859 11.2526C20.9503 11.5212 21.3828 11.5245 21.6515 11.2601C21.6538 11.2577 21.6567 11.2549 21.659 11.2526L22.5495 10.3521ZM19.7883 13.6479H19.225L20.4045 12.4552C20.8289 12.026 21.5164 12.026 21.9409 12.4552L23.1199 13.6479H22.5566L21.659 12.7404C21.3946 12.4717 20.9621 12.4684 20.6934 12.7328C20.6911 12.7352 20.6882 12.738 20.6859 12.7404L19.7883 13.6479Z" fill="#23292F"/>
<path d="M29.9754 10.3521C30.1194 10.355 30.2544 10.3833 30.38 10.4371C30.508 10.4876 30.6203 10.558 30.7162 10.6477C30.813 10.7379 30.8885 10.8441 30.9428 10.9659C30.9976 11.0859 31.025 11.2129 31.025 11.347C31.025 11.4839 30.9962 11.6142 30.9381 11.737C30.8838 11.8565 30.8064 11.9622 30.7072 12.0548C30.6109 12.1445 30.4966 12.2163 30.3663 12.2696C30.2374 12.3206 30.0986 12.3461 29.9513 12.3461H28.7217V13.6365H28.2892V10.3521H29.9754ZM29.9513 11.9481C30.0382 11.9481 30.1203 11.9325 30.1982 11.9013C30.2771 11.8702 30.3455 11.8272 30.4041 11.7724C30.4626 11.7181 30.5094 11.6534 30.5424 11.5807C30.576 11.5085 30.5925 11.4306 30.5925 11.347C30.5925 11.2662 30.576 11.1898 30.5424 11.1175C30.5094 11.0453 30.4622 10.9801 30.4041 10.9258C30.3455 10.871 30.2771 10.8285 30.1982 10.7969C30.1203 10.7657 30.0382 10.7502 29.9513 10.7502H28.7217V11.9481H29.9513Z" fill="#23292F"/>
<path d="M25.1469 12.3532C25.3637 12.3532 25.5691 12.4448 25.705 12.6025L26.5984 13.637H27.1546L25.9326 12.203C25.7966 12.0434 25.5903 11.9504 25.3717 11.9504H24.5251V10.7554H25.7546C25.8415 10.7554 25.9237 10.7709 26.0016 10.8021C26.0804 10.8337 26.1489 10.8767 26.2074 10.931L26.2084 10.9319C26.2664 10.9834 26.3122 11.0453 26.3458 11.1185C26.3793 11.1907 26.3958 11.2686 26.3958 11.3527C26.3958 11.4362 26.3788 11.5141 26.3458 11.5864C26.3255 11.6284 26.3009 11.6681 26.2716 11.7044L26.5531 12.0184C26.5564 12.0146 26.5601 12.0109 26.5634 12.0071C26.6465 11.9174 26.7108 11.8177 26.7556 11.7073C26.8038 11.5958 26.8279 11.4773 26.8279 11.3522C26.8279 11.2181 26.8005 11.0906 26.7457 10.9707C26.6914 10.8484 26.6159 10.7421 26.5191 10.652C26.4227 10.5622 26.3108 10.4909 26.1833 10.4371C26.0573 10.3833 25.9222 10.355 25.7778 10.3521H24.3079C24.2484 10.3521 24.1965 10.3743 24.154 10.4145C24.1129 10.4527 24.0916 10.4999 24.0916 10.5537V13.6365H24.5241V12.3532H25.1469Z" fill="#23292F"/>
<defs>
<radialGradient id="paint0_radial_7716_619" cx="0" cy="0" r="1" gradientUnits="userSpaceOnUse" gradientTransform="translate(-1.19209e-06 24) rotate(-30.9638) scale(46.6476 77.746)">
<stop stop-color="#6C6A97" stop-opacity="0.28"/>
<stop offset="1" stop-color="#323063" stop-opacity="0.48"/>
</radialGradient>
</defs>
</svg>

<svg xmlns="http://www.w3.org/2000/svg" width="40" height="24" fill="none"><path fill="#fff" d="M0 4a4 4 0 0 1 4-4h32a4 4 0 0 1 4 4v16a4 4 0 0 1-4 4H4a4 4 0 0 1-4-4z"/><path fill="url(#a)" d="M0 4a4 4 0 0 1 4-4h32a4 4 0 0 1 4 4v16a4 4 0 0 1-4 4H4a4 4 0 0 1-4-4z"/><path fill="#171C21" d="M17.975 12a4.5 4.5 0 1 1-9 0 4.5 4.5 0 0 1 9 0"/><path fill="#fff" d="M15.717 10.138h-.651l-1.029 1.018a.8.8 0 0 1-1.124 0l-1.029-1.018h-.65l1.353 1.34c.49.485 1.285.485 1.776 0zM11.225 13.865h.65l1.038-1.027a.8.8 0 0 1 1.124 0l1.037 1.027h.651l-1.362-1.349a1.264 1.264 0 0 0-1.775 0z"/><path fill="#23292F" d="M22.55 10.352h.563l-1.173 1.185c-.424.43-1.112.43-1.536 0l-1.172-1.185h.563l.89.9a.683.683 0 0 0 .966.008l.008-.007zm-2.762 3.296h-.563l1.18-1.193a1.08 1.08 0 0 1 1.536 0l1.179 1.193h-.563l-.898-.908a.683.683 0 0 0-.966-.007l-.007.007zM29.975 10.352q.217.004.405.085.192.076.336.21a.97.97 0 0 1 .309.7.9.9 0 0 1-.087.39 1 1 0 0 1-.23.318q-.145.134-.342.215a1.1 1.1 0 0 1-.415.076h-1.23v1.29h-.432v-3.284zm-.024 1.596a.66.66 0 0 0 .591-.367.55.55 0 0 0 0-.463.6.6 0 0 0-.344-.321.7.7 0 0 0-.247-.047h-1.23v1.198zM25.147 12.353c.217 0 .422.092.558.25l.893 1.034h.557l-1.222-1.434a.74.74 0 0 0-.561-.253h-.847v-1.195h1.23a.66.66 0 0 1 .452.176h.001a.56.56 0 0 1 .188.422.56.56 0 0 1-.124.351l.281.314.01-.01a.98.98 0 0 0 .265-.656.966.966 0 0 0-.309-.7 1.13 1.13 0 0 0-.741-.3h-1.47a.22.22 0 0 0-.154.063.19.19 0 0 0-.062.139v3.082h.432v-1.283z"/><defs><radialGradient id="a" cx="0" cy="0" r="1" gradientTransform="rotate(-30.964 43.324 12)scale(46.6476 77.746)" gradientUnits="userSpaceOnUse"><stop stop-color="#6C6A97" stop-opacity=".28"/><stop offset="1" stop-color="#323063" stop-opacity=".48"/></radialGradient></defs></svg>
